X:1
T: Full Moon Jig
C:Gordy Euler
R:Jig
Q: 180
K:D
M:6/8
L:1/16
|:A,2|A,2D2F2 A2d2f2|e2d2c2 B4d2|c2A2F2 E2F2G2|F2D2B,2 A,4A,2|
A,2D2F2 A2d2f2|e2d2c2 B4d2|c2A2F2 G2E2F2|D6 D4:|
|:((3ABc)|d2c2d2 d2e2f2|e2d2c2 B4d2|c2d2c2 c2B2c2|d2A2G2 F4((3ABc) |
d2c2d2 d2e2f2|e2d2c2 B4d2|c2A2F2 G2E2F2|D6 D4:|
